Origami/32x32/apps/spacemacs.svg

<svg width="32" height="32" version="1" xmlns="http://www.w3.org/2000/svg">
 <rect transform="matrix(0,-1,-1,0,0,0)" x="-31" y="-30" width="28" height="28" rx="14" ry="14" style="opacity:.2"/>
 <rect transform="matrix(0,-1,-1,0,0,0)" x="-30" y="-30" width="28" height="28" rx="14" ry="14" style="fill-opacity:.99199997;fill:#8366b2"/>
 <path d="M 16 2 C 8.244 2 2 8.244 2 16 C 2 16.168842 2.0195214 16.33264 2.0253906 16.5 C 2.2891326 8.9794325 8.4128418 3 16 3 C 23.587158 3 29.710867 8.9794325 29.974609 16.5 C 29.980479 16.33264 30 16.168842 30 16 C 30 8.244 23.756 2 16 2 z" style="fill:#ffffff;opacity:.1"/>
 <path d="m6.4003906 2c-0.851294-0.0166969-1.5232784 0.2207152-2.1113281 0.7363281-1.4621761 1.2886676-1.6873385 3.934744-0.6152344 7.6191409 0.0856364-0.159108 0.1721337-0.317356 0.2636719-0.4726565-0.7223034-2.8710189-0.6696813-3.7595314 0.5605469-4.8300781 1.0117481-0.8764883 2.6141403-0.9487941 4.6171875-0.2070313 3.5599256 1.3182707 7.5355776 3.4749022 11.583985 8.6132809 0.382081 0.484949 0.650765 1.11331 0.976562 1.519532-1.03692 0.01861-2.610978-0.0825-3.966797-0.326172-5.10058-0.916582-9.9040096-3.000088-12.15625-5.3496096-0.2016769-0.2103876-0.3664038-0.3670678-0.3671875-0.3496094-9.247e-4 0.01792 0.453949 0.9406895 1.0097656 2.048828l0.8359375 1.9375 1.2421875 0.601563c1.3512378 0.663747 3.0723555 1.438863 6.8105465 3.068359 4.095334 1.785143 5.929329 2.643256 7.789063 3.646484 1.490409 0.804 3.005257 1.784824 3.769531 2.439453 0.260416 0.223971 0.320879 0.281103 0.34375 0.304688 8.47e-4 -0.01687 0.01929-0.09937 0.01172-0.166016-0.04952-0.363474-0.334686-1.8007-0.599609-3.130859-0.05731-0.301298-0.120009-0.601519-0.179688-0.902344-0.02744-0.137091-0.06347-0.323299-0.08789-0.445312-0.03884-0.194063-0.08314-0.377188-0.123047-0.56836-0.561629-2.69669-1.215688-5.374216-2.046876-8.0097652-0.383298-1.2004008-0.624877-1.7818408-1.019532-2.4941407-0.146067-0.2637157-1.75953-1.3448517-2.037109-1.4902343-0.0045-0.0023-0.02225-0.022698-0.02539-0.023438l-2e-3 0.00391c-0.01014-0.00503-0.08131-0.053529-0.08594-0.054687l-2e-3 0.00195c-0.0036-0.0012-0.0049-0.00164-0.0059-0.00195-0.01637 0.014967 0.109866 0.2897509 0.246094 0.5292969 1.395396 2.4541392 2.311839 6.4381611 1.845703 8.5000001-0.0078 0.03204-0.01361 0.06458-0.02539 0.09766-5.95e-4 0.0017-0.0016 0.0046-2e-3 0.0059v2e-3c-0.0011-3.5e-4 -0.0049-0.0017-0.0059-2e-3 -0.01088 4e-3 -0.04083 0.0098-0.05469 0.01367-0.380618-0.4883418-0.714335-1.2080108-1.179462-1.8164528-2.856745-3.6675586-8.073476-9.054137-13.460938-10.75-0.6604305-0.1873855-1.2353174-0.28881-1.7460938-0.2988281z" style="opacity:.2"/>
 <path d="m6.4003906 1c-0.851294-0.0166969-1.5232784 0.2207152-2.1113281 0.7363281-1.4621761 1.2886676-1.6873385 3.934744-0.6152344 7.6191407 0.0856364-0.1591075 0.1721337-0.3173559 0.2636719-0.4726563-0.7223034-2.8710189-0.6696813-3.7595314 0.5605469-4.8300781 1.0117481-0.8764883 2.6141403-0.9487941 4.6171875-0.2070313 3.5599256 1.3182707 7.5355776 3.4749022 11.583985 8.6132809 0.382081 0.484949 0.650765 1.11331 0.976562 1.519532-1.03692 0.01861-2.610978-0.082495-3.966797-0.326172-5.10058-0.916582-9.9040096-3.000088-12.15625-5.3496096-0.2016769-0.2103876-0.3664038-0.3670678-0.3671875-0.3496094-9.247e-4 0.01792 0.453949 0.9406895 1.0097656 2.048828l0.8359375 1.9375 1.2421875 0.601563c1.3512378 0.663747 3.0723555 1.438863 6.8105465 3.068359 4.095334 1.785143 5.929329 2.643256 7.789063 3.646484 1.490409 0.804 3.005257 1.784824 3.769531 2.439453 0.260416 0.223971 0.320879 0.281103 0.34375 0.304688 8.47e-4 -0.01687 0.019289-0.099371 0.011719-0.166016-0.04952-0.363474-0.334686-1.8007-0.599609-3.130859-0.057311-0.301298-0.120009-0.601519-0.179688-0.902344-0.02744-0.137091-0.063471-0.323299-0.087891-0.445312-0.03884-0.194063-0.083142-0.377188-0.123047-0.56836-0.561627-2.69669-1.215686-5.374216-2.046874-8.0097652-0.383298-1.2004008-0.624877-1.7818408-1.019532-2.4941407-0.146067-0.2637157-1.75953-1.3448517-2.037109-1.4902343-0.0045-0.0023-0.022251-0.0226985-0.025391-0.0234376l-0.001953 0.0039063c-0.01014-0.00503-0.081307-0.0535295-0.085937-0.0546875l-0.001954 0.0019531c-0.003599-0.0012-0.004859-0.0016431-0.005859-0.0019531-0.01637 0.014967 0.109866 0.2897509 0.246094 0.5292969 1.395396 2.4541392 2.311839 6.4381611 1.845703 8.5000001-0.0078 0.03204-0.013611 0.064576-0.025391 0.097656-5.95e-4 0.0017-0.001553 0.00456-0.001953 0.005859v0.001954c-0.0011-3.5e-4 -0.004859-0.001653-0.005859-0.001954-0.01088 4e-3 -0.040828 0.009762-0.054688 0.013672-0.380843-0.488295-0.71456-1.207964-1.179687-1.816406-2.856745-3.6675586-8.073476-9.054137-13.460938-10.75-0.6604305-0.1873855-1.2353174-0.28881-1.7460938-0.2988281z" style="fill:#ffffff"/>
</svg>

<svg xmlns="http://www.w3.org/2000/svg" width="32" height="32" version="1">
 <rect style="opacity:0.2" width="28" height="28" x="-31" y="-30" rx="14" ry="14" transform="matrix(0,-1,-1,0,0,0)"/>
 <rect width="28" height="28" x="-30" y="-30" rx="14" ry="14" transform="matrix(0,-1,-1,0,0,0)" style="fill:#8366b2;fill-opacity:0.99199997"/>
 <path d="M 16 2 C 8.244 2 2 8.244 2 16 C 2 16.168842 2.0195214 16.33264 2.0253906 16.5 C 2.2891326 8.9794325 8.4128418 3 16 3 C 23.587158 3 29.710867 8.9794325 29.974609 16.5 C 29.980479 16.33264 30 16.168842 30 16 C 30 8.244 23.756 2 16 2 z" style="fill:#ffffff;opacity:0.1"/>
 <path style="opacity:0.2" d="M 6.4003906,2 C 5.5490966,1.9833031 4.8771122,2.2207152 4.2890625,2.7363281 2.8268864,4.0249957 2.601724,6.6710721 3.6738281,10.355469 3.7594645,10.196361 3.8459618,10.038113 3.9375,9.8828125 3.2151966,7.0117936 3.2678187,6.1232811 4.4980469,5.0527344 5.509795,4.1762461 7.1121872,4.1039403 9.1152344,4.8457031 12.67516,6.1639738 16.650812,8.3206053 20.699219,13.458984 c 0.382081,0.484949 0.650765,1.11331 0.976562,1.519532 -1.03692,0.01861 -2.610978,-0.0825 -3.966797,-0.326172 C 12.608404,13.735762 7.8049744,11.652256 5.5527344,9.3027344 5.3510575,9.0923468 5.1863306,8.9356666 5.1855469,8.953125 c -9.247e-4,0.01792 0.453949,0.9406895 1.0097656,2.048828 l 0.8359375,1.9375 1.2421875,0.601563 c 1.3512378,0.663747 3.0723555,1.438863 6.8105465,3.068359 4.095334,1.785143 5.929329,2.643256 7.789063,3.646484 1.490409,0.804 3.005257,1.784824 3.769531,2.439453 0.260416,0.223971 0.320879,0.281103 0.34375,0.304688 8.47e-4,-0.01687 0.01929,-0.09937 0.01172,-0.166016 -0.04952,-0.363474 -0.334686,-1.8007 -0.599609,-3.130859 -0.05731,-0.301298 -0.120009,-0.601519 -0.179688,-0.902344 -0.02744,-0.137091 -0.06347,-0.323299 -0.08789,-0.445312 -0.03884,-0.194063 -0.08314,-0.377188 -0.123047,-0.56836 C 25.446185,15.090419 24.792126,12.412893 23.960938,9.7773438 23.57764,8.576943 23.336061,7.995503 22.941406,7.2832031 22.795339,7.0194874 21.181876,5.9383514 20.904297,5.7929688 c -0.0045,-0.0023 -0.02225,-0.022698 -0.02539,-0.023438 l -0.002,0.00391 c -0.01014,-0.00503 -0.08131,-0.053529 -0.08594,-0.054687 l -0.002,0.00195 c -0.0036,-0.0012 -0.0049,-0.00164 -0.0059,-0.00195 -0.01637,0.014967 0.109866,0.2897509 0.246094,0.5292969 1.395396,2.4541392 2.311839,6.4381611 1.845703,8.5000001 -0.0078,0.03204 -0.01361,0.06458 -0.02539,0.09766 -5.95e-4,0.0017 -0.0016,0.0046 -0.002,0.0059 l 0,0.002 c -0.0011,-3.5e-4 -0.0049,-0.0017 -0.0059,-0.002 -0.01088,0.004 -0.04083,0.0098 -0.05469,0.01367 C 22.406266,14.376939 22.072549,13.65727 21.607422,13.048828 18.750677,9.3812694 13.533946,3.994691 8.1464844,2.2988281 7.4860539,2.1114426 6.911167,2.0100181 6.4003906,2 Z"/>
 <path d="M 6.4003906 1 C 5.5490966 0.9833031 4.8771122 1.2207152 4.2890625 1.7363281 C 2.8268864 3.0249957 2.601724 5.6710721 3.6738281 9.3554688 C 3.7594645 9.1963613 3.8459618 9.0381129 3.9375 8.8828125 C 3.2151966 6.0117936 3.2678187 5.1232811 4.4980469 4.0527344 C 5.509795 3.1762461 7.1121872 3.1039403 9.1152344 3.8457031 C 12.67516 5.1639738 16.650812 7.3206053 20.699219 12.458984 C 21.0813 12.943933 21.349984 13.572294 21.675781 13.978516 C 20.638861 13.997126 19.064803 13.896021 17.708984 13.652344 C 12.608404 12.735762 7.8049744 10.652256 5.5527344 8.3027344 C 5.3510575 8.0923468 5.1863306 7.9356666 5.1855469 7.953125 C 5.1846222 7.971045 5.6394959 8.8938145 6.1953125 10.001953 L 7.03125 11.939453 L 8.2734375 12.541016 C 9.6246753 13.204763 11.345793 13.979879 15.083984 15.609375 C 19.179318 17.394518 21.013313 18.252631 22.873047 19.255859 C 24.363456 20.059859 25.878304 21.040683 26.642578 21.695312 C 26.902994 21.919283 26.963457 21.976415 26.986328 22 C 26.987175 21.98313 27.005617 21.900629 26.998047 21.833984 C 26.948527 21.47051 26.663361 20.033284 26.398438 18.703125 C 26.341127 18.401827 26.278429 18.101606 26.21875 17.800781 C 26.19131 17.66369 26.155279 17.477482 26.130859 17.355469 C 26.092019 17.161406 26.047717 16.978281 26.007812 16.787109 C 25.446185 14.090419 24.792126 11.412893 23.960938 8.7773438 C 23.57764 7.576943 23.336061 6.995503 22.941406 6.2832031 C 22.795339 6.0194874 21.181876 4.9383514 20.904297 4.7929688 C 20.899797 4.7906688 20.882046 4.7702703 20.878906 4.7695312 L 20.876953 4.7734375 C 20.866813 4.7684075 20.795646 4.719908 20.791016 4.71875 L 20.789062 4.7207031 C 20.785463 4.7195031 20.784203 4.71906 20.783203 4.71875 C 20.766833 4.733717 20.893069 5.0085009 21.029297 5.2480469 C 22.424693 7.7021861 23.341136 11.686208 22.875 13.748047 C 22.8672 13.780087 22.861389 13.812623 22.849609 13.845703 C 22.849014 13.847403 22.848056 13.850263 22.847656 13.851562 L 22.847656 13.853516 C 22.846556 13.853166 22.842797 13.851863 22.841797 13.851562 C 22.830917 13.855562 22.800969 13.861324 22.787109 13.865234 C 22.406266 13.376939 22.072549 12.65727 21.607422 12.048828 C 18.750677 8.3812694 13.533946 2.994691 8.1464844 1.2988281 C 7.4860539 1.1114426 6.911167 1.0100181 6.4003906 1 z" style="fill:#ffffff"/>
</svg>
